assets/icons/24px/stroke/arrow-circle-forward-five-24px.svg

<svg width="24" height="24" viewBox="0 0 24 24" fill="none" xmlns="http://www.w3.org/2000/svg">
<path fill-rule="evenodd" clip-rule="evenodd" d="M16.1135 2.30587C16.4969 1.90831 17.1299 1.89679 17.5275 2.28015L20.1941 4.85152C20.3896 5.03999 20.5 5.29984 20.5 5.57136C20.5 5.84288 20.3896 6.10273 20.1941 6.2912L17.5275 8.86271C17.13 9.24608 16.4969 9.23458 16.1135 8.83703C15.7302 8.43948 15.7417 7.80642 16.1392 7.42305L17.0224 6.57137L12.5 6.57136C8.56459 6.57136 5.5 9.24909 5.5 13.2857C5.5 17.3223 8.56459 20 12.5 20C16.2946 20 18.8778 17.0681 18.8778 13.2857C18.8778 12.7334 19.3255 12.2857 19.8778 12.2857C20.4301 12.2857 20.8778 12.7334 20.8778 13.2857C20.8778 18.0243 17.542 22 12.5 22C7.59886 22 3.5 18.5607 3.5 13.2857C3.5 8.01062 7.59886 4.57136 12.5 4.57136L17.0223 4.57137L16.1392 3.71985C15.7417 3.33649 15.7301 2.70343 16.1135 2.30587Z" fill="white"/>
<path fill-rule="evenodd" clip-rule="evenodd" d="M10.6346 10.2594C10.6811 10.0255 10.8864 9.85693 11.125 9.85693H14.3698C14.6459 9.85693 14.8698 10.0808 14.8698 10.3569C14.8698 10.6331 14.6459 10.8569 14.3698 10.8569H11.5353L11.2031 12.5279C11.5324 12.411 11.9252 12.3569 12.4948 12.3569C13.1568 12.3569 13.7854 12.4909 14.2392 12.9385C14.6934 13.3866 14.8698 14.0471 14.8698 14.8569C14.8698 15.3099 14.7654 15.6896 14.5678 15.9955C14.3703 16.301 14.1022 16.4981 13.8315 16.6233C13.325 16.8574 12.7643 16.8571 12.5128 16.8569C12.5066 16.8569 12.5006 16.8569 12.4948 16.8569L12.4813 16.8569C12.2296 16.857 11.6726 16.8571 11.1677 16.7126C10.9087 16.6385 10.6209 16.5151 10.3918 16.2976C10.148 16.066 9.99475 15.7489 9.99475 15.3569C9.99475 15.0808 10.2186 14.8569 10.4948 14.8569C10.7709 14.8569 10.9948 15.0808 10.9948 15.3569C10.9948 15.465 11.0283 15.5229 11.0806 15.5726C11.1476 15.6362 11.265 15.7003 11.4428 15.7512C11.8025 15.8541 12.2343 15.8569 12.4948 15.8569C12.7581 15.8569 13.1197 15.8507 13.4119 15.7156C13.5468 15.6532 13.6527 15.569 13.7279 15.4527C13.8028 15.3367 13.8698 15.1539 13.8698 14.8569C13.8698 14.1668 13.7163 13.8273 13.5369 13.6504C13.357 13.473 13.0481 13.3569 12.4948 13.3569C11.9204 13.3569 11.6526 13.4195 11.47 13.4964C11.3747 13.5366 11.2869 13.5872 11.1751 13.6592C11.1433 13.6797 11.1069 13.7038 11.0668 13.7302C10.9779 13.7889 10.8715 13.8592 10.7602 13.927C10.5908 14.0303 10.3763 14.0236 10.2136 13.9099C10.0509 13.7962 9.97087 13.5972 10.0096 13.4025L10.6346 10.2594Z" fill="white"/>
</svg>

<svg width="24" height="24" fill="none" xmlns="http://www.w3.org/2000/svg"><path fill-rule="evenodd" clip-rule="evenodd" d="M16.113 2.306a1 1 0 0 1 1.415-.026l2.666 2.572a1 1 0 0 1 0 1.44l-2.666 2.57a1 1 0 0 1-1.389-1.439l.883-.852H12.5c-3.935 0-7 2.678-7 6.715 0 4.036 3.065 6.714 7 6.714 3.795 0 6.378-2.932 6.378-6.714a1 1 0 1 1 2 0c0 4.738-3.336 8.714-8.378 8.714-4.901 0-9-3.44-9-8.714 0-5.275 4.099-8.715 9-8.715h4.522l-.883-.851a1 1 0 0 1-.026-1.414z" fill="#fff"/><path fill-rule="evenodd" clip-rule="evenodd" d="M10.635 10.26a.5.5 0 0 1 .49-.403h3.245a.5.5 0 0 1 0 1h-2.835l-.332 1.67c.33-.116.722-.17 1.292-.17.662 0 1.29.134 1.744.582.454.448.63 1.108.63 1.918 0 .453-.104.833-.301 1.139a1.72 1.72 0 0 1-.736.627c-.507.234-1.068.234-1.32.234h-.031c-.251 0-.808 0-1.313-.144-.26-.075-.547-.198-.776-.415a1.263 1.263 0 0 1-.397-.941.5.5 0 0 1 1 0c0 .108.033.166.086.216a.885.885 0 0 0 .362.178c.36.103.791.106 1.052.106.263 0 .625-.006.917-.141a.722.722 0 0 0 .316-.263c.075-.116.142-.3.142-.596 0-.69-.154-1.03-.333-1.207-.18-.177-.489-.293-1.042-.293-.575 0-.842.063-1.025.14a1.9 1.9 0 0 0-.295.162l-.108.071c-.09.059-.196.13-.307.197a.5.5 0 0 1-.75-.524l.625-3.144z" fill="#fff"/></svg>
